icons/Download.svg

<svg width="24" height="24" viewBox="0 0 24 24" fill="none" xmlns="http://www.w3.org/2000/svg">
<path fill-rule="evenodd" clip-rule="evenodd" d="M19.5 18C19.6326 18 19.7598 18.0527 19.8536 18.1464C19.9473 18.2402 20 18.3674 20 18.5V20C20 20.1326 19.9473 20.2598 19.8536 20.3536C19.7598 20.4473 19.6326 20.5 19.5 20.5H4.5C4.36739 20.5 4.24021 20.4473 4.14645 20.3536C4.05268 20.2598 4 20.1326 4 20V18.5C4 18.3674 4.05268 18.2402 4.14645 18.1464C4.24021 18.0527 4.36739 18 4.5 18H19.5ZM12.62 4C12.7844 4 12.9421 4.06532 13.0584 4.18159C13.1747 4.29787 13.24 4.45557 13.24 4.62V11.51L15.07 9.69C15.1261 9.631 15.1935 9.58402 15.2683 9.55191C15.3431 9.51981 15.4236 9.50325 15.505 9.50325C15.5864 9.50325 15.6669 9.51981 15.7417 9.55191C15.8165 9.58402 15.8839 9.631 15.94 9.69L16.82 10.56C16.9348 10.6777 16.9991 10.8356 16.9991 11C16.9991 11.1644 16.9348 11.3223 16.82 11.44L13.31 14.94L12.44 15.82C12.3223 15.9348 12.1644 15.9991 12 15.9991C11.8356 15.9991 11.6777 15.9348 11.56 15.82L10.69 14.94L7.18 11.44C7.06517 11.3223 7.00089 11.1644 7.00089 11C7.00089 10.8356 7.06517 10.6777 7.18 10.56L8.06 9.69C8.11605 9.631 8.18352 9.58402 8.2583 9.55191C8.33309 9.51981 8.41362 9.50325 8.495 9.50325C8.57638 9.50325 8.65691 9.51981 8.7317 9.55191C8.80648 9.58402 8.87395 9.631 8.93 9.69L10.76 11.51V4.62C10.76 4.53858 10.776 4.45796 10.8072 4.38274C10.8384 4.30751 10.884 4.23917 10.9416 4.18159C10.9992 4.12402 11.0675 4.07835 11.1427 4.04719C11.218 4.01604 11.2986 4 11.38 4H12.62Z" fill="black"/>
</svg>

<svg xmlns="http://www.w3.org/2000/svg" viewBox="0 0 24 24">
  <path d="M19.5 18a.5.5 0 01.5.5V20a.5.5 0 01-.5.5h-15A.5.5 0 014 20v-1.5a.5.5 0 01.5-.5h15zM12.62 4a.62.62 0 01.62.62v6.89l1.83-1.82a.6.6 0 01.87 0l.88.87a.63.63 0 010 .88l-3.51 3.5-.87.88a.63.63 0 01-.88 0l-.87-.88-3.51-3.5a.63.63 0 010-.88l.88-.87a.6.6 0 01.87 0l1.83 1.82V4.62a.62.62 0 01.62-.62h1.24z"/>
</svg>
